/* XPM */
static char * c_logout_32_1_xpm[] = {
"32 32 48 1",
" 	c #A3B0B2",
".	c #142F20",
"+	c #823D15",
"@	c #8A2A10",
"#	c #974918",
"$	c #F98648",
"%	c #DC672F",
"&	c #FFFFFF",
"*	c #E25229",
"=	c #E94B17",
"-	c #F59353",
";	c #9AA5A5",
">	c #5B7067",
",	c #899693",
"'	c #9EAAAB",
")	c #627673",
"!	c #153222",
"~	c #253F32",
"{	c #CC401A",
"]	c #7E3A10",
"^	c #FEC79C",
"/	c #FAAD72",
"(	c #F76B2D",
"_	c #752612",
":	c #CC5422",
"<	c #5F7473",
"[	c #FC7335",
"}	c #F85019",
"|	c #BF2C0F",
"1	c #FEA56C",
"2	c #CF4C1C",
"3	c #CC3617",
"4	c #F65B22",
"5	c #C92B0F",
"6	c #D54525",
"7	c #DC381E",
"8	c #F7300A",
"9	c #DC382B",
"0	c #F31402",
"a	c #BA0D05",
"b	c #FA0100",
"c	c #7C8D8A",
"d	c #E00202",
"e	c #6D1810",
"f	c #435B4E",
"g	c #CE0B09",
"h	c #8D281F",
"i	c #1C3A2A",
"                                ",
" .............................. ",
" .....++................@@..... ",
" ....#+$%&&&&&&&&&&&&&&*=@@.... ",
" ...##--%%&&&&&&&;>>,'**==@@... ",
" ..##$--%%%&&&&&&)!!~{**===@@.. ",
" .]]$$^^/%%%&&&&&!!!{{{(((==__. ",
" .]$$$^^//%%:&&&&<!{{{((((===_. ",
" ..::://^^--::&&&&{{(([[}}|||.. ",
" ...::%/^^1-::2!!3{{([[[}|||... ",
" ....%%%-111$$2233(([[[4|||.... ",
" .....%%--11$$2233(([[44||..... ",
" ......:::$$--[[[[[[44555...... ",
" .......::$$--[[[[[[4455!...... ",
" .......&***$$$$((((666~~...... ",
" .......&&**$$$$((((66&&&...... ",
" .......&&66[[[[((}}77&&&...... ",
" .......&666[[[[((}}777&&...... ",
" .......66(([[44}}}}8899&...... ",
" ......666(([[44}}}}88999...... ",
" .....{{(([[443355888800aa..... ",
" ....{{{(([[443355888800aaa.... ",
" ...33{([[44333&&5aa00bbbaaa... ",
" ..333(([[4433&&&&aa00bbbbaaa.. ",
" ._===[[44663&&&&&caaabbbbddde. ",
" .__==[[4666&&&&&&&faagbbbddee. ",
" ..@@===||6&&&&&&&&&&gggddd@@.. ",
" ...@@==||&&&&&&&&f!!cggdd@@... ",
" ...!@h=|&&&&&&&&f!!f&&gde@.... ",
" ...!>hh>>>>>>>>f!!f>>i.ee..... ",
" .............................. ",
"                                "};
